X: 2049
T: The Hanging Tree
C:James Newton Howard
B: steve song book
M:4/4
Q: 1/4=95
K:Am
V:1 
G|"Am"A3c "D"d3c|"C"dd dc "Am"A3G|"Am"A3c "D"d3c|"G"dd dc d4|
"Am"e2dc "D"dc AG|"Am"AA AG "Em"E3G  | "Am"A3c "D"d3c|"Am"AAAG A3G| 
"Am"A3c "D"d3c|"C"ee  dc "Am"A3G|"Am"A3c "D"d3c|"C"ee  dc "Am"A3G|
"Am"e2 ge "D"dc AG|"Am"AA AG "Em"E3G|"Am"A3c "D"d3c|"Am"AAAG A3||     
W: [Verse 1]
W: Are you, are you coming to the tree?
W: Where they strung up a man
W: They say who murdered three
W: [Refrain]
W: Strange things did happen here
W: No stranger would it be
W: If we met at midnight in the hanging tree
W: 
W: [Verse 2]
W: Are you, are you coming to the tree?
W: Where a dead man called out
W: For his love to flee
W: [Refrain]
W: Strange things did happen here
W: No stranger would it be
W: If we met at midnight in the hanging tree
W: 
W: [Verse 3]
W: Are you, are you coming to the tree?
W: Where I told you to run
W: So we'd both be free
W: [Refrain]
W: Strange things did happen here
W: No stranger would it be
W: If we met at midnight in the hanging tree
W: 
W: [Verse 4]
W: Are you, are you coming to the tree?
W: Wear a necklace of hope
W: Side by side with me
W: [Refrain]
W: Strange things did happen here
W: No stranger would it be
W: If we met at midnight in the hanging tree
W: 
W: [Verse 3]
W: Are you, are you coming to the tree?
W: Where I told you to run
W: So we'd both be free
W: [Refrain]
W: Strange things did happen here
W: No stranger would it be
W: If we met at midnight in the hanging tree
W: 
W: [Verse 1]
W: Are you, are you coming to the tree?
W: Where they strung up a man
W: They say who murdered three
W: [Refrain]
W: Strange things did happen here
W: No stranger would it be
W: If we met at midnight in the hanging tree
W: 
W: [Verse 2]
W: Are you, are you coming to the tree?
W: Where a dead man called out
W: For his love to flee
W: [Refrain]
W: Strange things did happen here
W: No stranger would it be
W: If we met at midnight in the hanging tree
% abcbook-tune_id 62b91cd4b13c190f65132838


% abcbook-boost 0
% abcbook-tablature 
% abcbook-transpose -7
% abcbook-lastupdated 1656302225888
% abcbook-soundfonts 
% abcbook-repeats 4
%%MIDI transpose              -7


